icons/mac-line.svg

<svg xmlns="http://www.w3.org/2000/svg" width="24" height="24" fill="none"><g clip-path="url(#a)"><g><path fill="#121212" d="M14 18V20L16 21V22H7.99999L7.99599 21.004L10 20V18H2.992C2.86068 17.9992 2.73081 17.9725 2.60983 17.9215C2.48885 17.8704 2.37914 17.7959 2.28699 17.7024C2.19483 17.6088 2.12204 17.498 2.0728 17.3763C2.02355 17.2546 1.99881 17.1243 1.99999 16.993V4.007C1.99999 3.451 2.455 3 2.992 3H21.008C21.556 3 22 3.449 22 4.007V16.993C22 17.549 21.545 18 21.008 18H14ZM3.99999 5V14H20V5H3.99999Z"/></g></g><defs><clipPath id="a"><rect width="24" height="24" fill="white"/></clipPath></defs></svg>

<svg width="24" height="24" fill="none" xmlns="http://www.w3.org/2000/svg"><g clip-path="url(#a)"><path d="M14 18v2l2 1v1H8l-.004-.996L10 20v-2H2.992A1 1 0 0 1 2 16.993V4.007C2 3.451 2.455 3 2.992 3h18.016c.548 0 .992.449.992 1.007v12.986c0 .556-.455 1.007-.992 1.007H14ZM4 5v9h16V5H4Z" /></g><defs><clipPath id="a"><path fill="#fff" d="M0 0h24v24H0z"/></clipPath></defs></svg>
